img/technopathy.svg

<svg xmlns="http://www.w3.org/2000/svg" width="256" height="256" viewBox="0 0 256 256"><style type="text/css">.st0{fill:#999999;}</style><path class="st0" d="M140.4 99.1v-33h16.5v-49.6h-57.8v49.6h16.5v33h-57.8v140.4h140.4v-140.4h-57.8zm-66.1 24.8h24.8v24.8h-24.8v-24.8zm66.1 90.8h-66.1v-16.5h66.1v16.5zm0-24.8h-66.1v-16.5h66.1v16.5zm0-41.3h-24.8v-24.8h24.8v24.8z"/></svg>

<?xml version="1.0" encoding="utf-8"?>
<!-- Generator: Adobe Illustrator 19.1.0, SVG Export Plug-In . SVG Version: 6.00 Build 0)  -->
<!DOCTYPE svg PUBLIC "-//W3C//DTD SVG 1.1//EN" "http://www.w3.org/Graphics/SVG/1.1/DTD/svg11.dtd">
<svg version="1.1" id="Layer_1" xmlns="http://www.w3.org/2000/svg" xmlns:xlink="http://www.w3.org/1999/xlink" x="0px" y="0px"
	 width="256px" height="256px" viewBox="0 0 256 256" style="enable-background:new 0 0 256 256;" xml:space="preserve">
<style type="text/css">
	.st0{fill:#999999;}
</style>
<g>
	<path class="st0" d="M140.4,99.1v-33h16.5V16.5H99.1v49.6h16.5v33H57.8v140.4h140.4V99.1H140.4z M74.3,123.9h24.8v24.8H74.3V123.9z
		 M140.4,214.7H74.3v-16.5h66.1V214.7z M140.4,189.9H74.3v-16.5h66.1V189.9z M140.4,148.6h-24.8v-24.8h24.8V148.6z"/>
</g>
</svg>
